apps/scalable/celestia.svg

<svg xmlns="http://www.w3.org/2000/svg" style="isolation:isolate" width="256" height="256"><defs><filter id="a" width="270.648" height="254.338" x="-7.32" y="2.95" filterUnits="userSpaceOnUse"><feGaussianBlur xmlns="http://www.w3.org/2000/svg" in="SourceGraphic" stdDeviation="4.294"/><feOffset xmlns="http://www.w3.org/2000/svg" dy="4" result="pf_100_offsetBlur"/><feFlood xmlns="http://www.w3.org/2000/svg" flood-opacity=".4"/><feComposite xmlns="http://www.w3.org/2000/svg" in2="pf_100_offsetBlur" operator="in" result="pf_100_dropShadow"/><feBlend xmlns="http://www.w3.org/2000/svg" in="SourceGraphic" in2="pf_100_dropShadow"/></filter></defs><path fill="#111" d="M165.685 11.947c74.055 0 84.639 10.557 84.639 84.544v59.251c0 73.986-10.584 84.543-84.639 84.543h-75.37c-74.055 0-84.639-10.557-84.639-84.543V96.491c0-73.987 10.584-84.544 84.639-84.544h75.37z" filter="url(#a)"/><path fill="#FAF8F6" fill-opacity=".1" d="M200.624 13.368c21.336 2.331 33.761 8.039 40.852 20.701-8.913 10.389-59.289 79.138-151.161 206.216-8.812 0-16.725-.149-23.829-.537-38.194-2.087-52.984-11.069-58.22-40.795C22.542 189.23 207.2 13.813 200.624 13.368z"/><path fill="none" d="M165.685 13.831c74.055 0 84.639 10.557 84.639 84.544v59.25c0 73.987-10.584 84.544-84.639 84.544h-75.37c-74.055 0-84.639-10.557-84.639-84.544v-59.25c0-73.987 10.584-84.544 84.639-84.544h75.37z" opacity=".1"/><circle fill="#FFF" r="1" transform="translate(72.954 105.574) scale(4.077)" vector-effect="non-scaling-stroke"/><circle fill="#FFF" r="1" transform="translate(93.341 187.123) scale(4.077)" vector-effect="non-scaling-stroke"/><circle fill="#FFF" r="1" transform="translate(154.504 146.349) scale(4.077)" vector-effect="non-scaling-stroke"/><circle fill="#FFF" r="1" transform="translate(174.891 85.187) scale(4.077)" vector-effect="non-scaling-stroke"/><defs><filter id="b" width="20.732" height="20.732" x="62.59" y="95.21" filterUnits="userSpaceOnUse"><feGaussianBlur xmlns="http://www.w3.org/2000/svg" stdDeviation="2.7"/></filter></defs><circle fill="#FFF" r="1" transform="translate(72.954 105.574) scale(4.077)" vector-effect="non-scaling-stroke" filter="url(#b)"/><defs><filter id="c" width="20.732" height="20.732" x="82.98" y="176.76" filterUnits="userSpaceOnUse"><feGaussianBlur xmlns="http://www.w3.org/2000/svg" stdDeviation="2.7"/></filter></defs><circle fill="#FFF" r="1" transform="translate(93.341 187.123) scale(4.077)" vector-effect="non-scaling-stroke" filter="url(#c)"/><defs><filter id="d" width="20.732" height="20.732" x="144.14" y="135.98" filterUnits="userSpaceOnUse"><feGaussianBlur xmlns="http://www.w3.org/2000/svg" stdDeviation="2.7"/></filter></defs><circle fill="#FFF" r="1" transform="translate(154.504 146.349) scale(4.077)" vector-effect="non-scaling-stroke" filter="url(#d)"/><defs><filter id="e" width="20.732" height="20.732" x="164.53" y="74.82" filterUnits="userSpaceOnUse"><feGaussianBlur xmlns="http://www.w3.org/2000/svg" stdDeviation="2.7"/></filter></defs><circle fill="#FFF" r="1" transform="translate(174.891 85.187) scale(4.077)" vector-effect="non-scaling-stroke" filter="url(#e)"/><circle fill="#FFF" r="1" transform="translate(39.643 65.169) scale(4.077)" vector-effect="non-scaling-stroke"/><circle fill="#FFF" r="1" transform="translate(60.031 146.719) scale(4.077)" vector-effect="non-scaling-stroke"/><circle fill="#FFF" r="1" transform="translate(121.193 105.944) scale(4.077)" vector-effect="non-scaling-stroke"/><circle fill="#FFF" r="1" transform="translate(141.58 44.782) scale(4.077)" vector-effect="non-scaling-stroke"/><defs><filter id="f" width="20.732" height="20.732" x="29.28" y="54.8" filterUnits="userSpaceOnUse"><feGaussianBlur xmlns="http://www.w3.org/2000/svg" stdDeviation="2.7"/></filter></defs><circle fill="#FFF" r="1" transform="translate(39.643 65.169) scale(4.077)" vector-effect="non-scaling-stroke" filter="url(#f)"/><defs><filter id="g" width="20.732" height="20.732" x="49.66" y="136.35" filterUnits="userSpaceOnUse"><feGaussianBlur xmlns="http://www.w3.org/2000/svg" stdDeviation="2.7"/></filter></defs><circle fill="#FFF" r="1" transform="translate(60.031 146.719) scale(4.077)" vector-effect="non-scaling-stroke" filter="url(#g)"/><defs><filter id="h" width="20.732" height="20.732" x="110.83" y="95.58" filterUnits="userSpaceOnUse"><feGaussianBlur xmlns="http://www.w3.org/2000/svg" stdDeviation="2.7"/></filter></defs><circle fill="#FFF" r="1" transform="translate(121.193 105.944) scale(4.077)" vector-effect="non-scaling-stroke" filter="url(#h)"/><defs><filter id="i" width="20.732" height="20.732" x="131.21" y="34.42" filterUnits="userSpaceOnUse"><feGaussianBlur xmlns="http://www.w3.org/2000/svg" stdDeviation="2.7"/></filter></defs><circle fill="#FFF" r="1" transform="translate(141.58 44.782) scale(4.077)" vector-effect="non-scaling-stroke" filter="url(#i)"/><circle fill="#FFF" r="1" transform="translate(113.976 129.94) scale(4.077)" vector-effect="non-scaling-stroke"/><circle fill="#FFF" r="1" transform="translate(134.363 211.49) scale(4.077)" vector-effect="non-scaling-stroke"/><circle fill="#FFF" r="1" transform="translate(195.525 170.715) scale(4.077)" vector-effect="non-scaling-stroke"/><circle fill="#FFF" r="1" transform="translate(215.913 109.553) scale(4.077)" vector-effect="non-scaling-stroke"/><defs><filter id="j" width="20.732" height="20.732" x="103.61" y="119.57" filterUnits="userSpaceOnUse"><feGaussianBlur xmlns="http://www.w3.org/2000/svg" stdDeviation="2.7"/></filter></defs><circle fill="#FFF" r="1" transform="translate(113.976 129.94) scale(4.077)" vector-effect="non-scaling-stroke" filter="url(#j)"/><defs><filter id="k" width="20.732" height="20.732" x="124" y="201.12" filterUnits="userSpaceOnUse"><feGaussianBlur xmlns="http://www.w3.org/2000/svg" stdDeviation="2.7"/></filter></defs><circle fill="#FFF" r="1" transform="translate(134.363 211.49) scale(4.077)" vector-effect="non-scaling-stroke" filter="url(#k)"/><defs><filter id="l" width="20.732" height="20.732" x="185.16" y="160.35" filterUnits="userSpaceOnUse"><feGaussianBlur xmlns="http://www.w3.org/2000/svg" stdDeviation="2.7"/></filter></defs><circle fill="#FFF" r="1" transform="translate(195.525 170.715) scale(4.077)" vector-effect="non-scaling-stroke" filter="url(#l)"/><defs><filter id="m" width="20.732" height="20.732" x="205.55" y="99.19" filterUnits="userSpaceOnUse"><feGaussianBlur xmlns="http://www.w3.org/2000/svg" stdDeviation="2.7"/></filter></defs><circle fill="#FFF" r="1" transform="translate(215.913 109.553) scale(4.077)" vector-effect="non-scaling-stroke" filter="url(#m)"/><g><defs><filter id="n" width="112" height="112" x="68.18" y="57.83" filterUnits="userSpaceOnUse"><feGaussianBlur xmlns="http://www.w3.org/2000/svg" stdDeviation="4.294"/></filter></defs><circle fill="#FFF" r="1" transform="matrix(46 0 0 46 124.176 113.831)" vector-effect="non-scaling-stroke" opacity=".4" filter="url(#n)"/><circle fill="#FB7C38" r="1" transform="matrix(46 0 0 46 124.176 113.831)" vector-effect="non-scaling-stroke"/><defs><filter id="o" width="60" height="60" x="78.18" y="68.33" filterUnits="userSpaceOnUse"><feGaussianBlur xmlns="http://www.w3.org/2000/svg" stdDeviation="6.44"/></filter></defs><circle fill="#FDA463" r="1" transform="matrix(15 0 0 15 108.176 98.331)" vector-effect="non-scaling-stroke" filter="url(#o)"/><defs><filter id="p" width="158.236" height="123.464" x="48.57" y="58.59" filterUnits="userSpaceOnUse"><feGaussianBlur xmlns="http://www.w3.org/2000/svg" stdDeviation="1.768"/></filter></defs><path fill="#E1E1E1" d="M83.486 134.2c-21.63 19.974-34.073 36.633-30.04 41.992 5.825 7.741 43.811-11.004 84.796-41.846 40.984-30.842 69.52-62.157 63.695-69.898-3.912-5.198-22.357 1.585-46.444 15.918 1.46.915 2.843 1.953 4.186 3.06 13.542-7.056 23.378-9.884 25.835-6.619 4.536 6.028-17.694 30.415-49.61 54.433-31.917 24.018-61.499 38.621-66.035 32.593-2.594-3.448 3.588-12.907 15.305-24.861-.656-1.571-1.237-3.16-1.688-4.772z" filter="url(#p)"/></g><g opacity=".4"><linearGradient id="q" x1=".517" x2=".517" y2="1"><stop offset="0%" stop-color="#fff"/><stop offset="12.5%" stop-opacity=".098" stop-color="#fff"/><stop offset="92.5%" stop-opacity=".098"/><stop offset="100%" stop-opacity=".498"/></linearGradient><path fill="none" stroke="url(#q)" stroke-linecap="round" stroke-linejoin="round" stroke-width="4.077" d="M165.685 11.947c74.055 0 84.639 10.557 84.639 84.544v59.251c0 73.986-10.584 84.543-84.639 84.543h-75.37c-74.055 0-84.639-10.557-84.639-84.543V96.491c0-73.987 10.584-84.544 84.639-84.544h75.37z" vector-effect="non-scaling-stroke"/></g></svg>

<svg xmlns="http://www.w3.org/2000/svg" style="isolation:isolate" width="256" height="256" viewBox="0 0 256 256">
 <defs>
  <filter id="CzYYYIfM5A47jWS1Ft9nCCA6naSskDR5" width="270.648" height="254.338" x="-7.32" y="2.95" filterUnits="userSpaceOnUse">
   <feGaussianBlur xmlns="http://www.w3.org/2000/svg" in="SourceGraphic" stdDeviation="4.294"/>
   <feOffset xmlns="http://www.w3.org/2000/svg" dx="0" dy="4" result="pf_100_offsetBlur"/>
   <feFlood xmlns="http://www.w3.org/2000/svg" flood-opacity=".4"/>
   <feComposite xmlns="http://www.w3.org/2000/svg" in2="pf_100_offsetBlur" operator="in" result="pf_100_dropShadow"/>
   <feBlend xmlns="http://www.w3.org/2000/svg" in="SourceGraphic" in2="pf_100_dropShadow" mode="normal"/>
  </filter>
 </defs>
 <g filter="url(#CzYYYIfM5A47jWS1Ft9nCCA6naSskDR5)">
  <path fill="#111111" d="M 165.685 11.947 C 239.74 11.947 250.324 22.504 250.324 96.491 L 250.324 155.742 C 250.324 229.728 239.74 240.285 165.685 240.285 L 90.315 240.285 C 16.26 240.285 5.676 229.728 5.676 155.742 L 5.676 96.491 C 5.676 22.504 16.26 11.947 90.315 11.947 L 165.685 11.947 Z"/>
 </g>
 <path fill="#FAF8F6" fill-opacity=".1" d="M 200.624 13.368 C 221.96 15.699 234.385 21.407 241.476 34.069 C 232.563 44.458 182.187 113.207 90.315 240.285 C 81.503 240.285 73.59 240.136 66.486 239.748 C 28.292 237.661 13.502 228.679 8.266 198.953 C 22.542 189.23 207.2 13.813 200.624 13.368 Z"/>
 <g>
  <g>
   <g opacity=".1">
    <path fill="none" d="M 165.685 13.831 C 239.74 13.831 250.324 24.388 250.324 98.375 L 250.324 157.625 C 250.324 231.612 239.74 242.169 165.685 242.169 L 90.315 242.169 C 16.26 242.169 5.676 231.612 5.676 157.625 L 5.676 98.375 C 5.676 24.388 16.26 13.831 90.315 13.831 L 165.685 13.831 Z"/>
   </g>
   <circle fill="#FFFFFF" cx="0" cy="0" r="1" transform="matrix(4.077,0,0,4.077,72.954,105.574)" vector-effect="non-scaling-stroke"/>
   <circle fill="#FFFFFF" cx="0" cy="0" r="1" transform="matrix(4.077,0,0,4.077,93.341,187.123)" vector-effect="non-scaling-stroke"/>
   <circle fill="#FFFFFF" cx="0" cy="0" r="1" transform="matrix(4.077,0,0,4.077,154.504,146.349)" vector-effect="non-scaling-stroke"/>
   <circle fill="#FFFFFF" cx="0" cy="0" r="1" transform="matrix(4.077,0,0,4.077,174.891,85.187)" vector-effect="non-scaling-stroke"/>
   <defs>
    <filter id="TfqIL7idKQk75CeG3iDtrF13UaD06pek" width="20.732" height="20.732" x="62.59" y="95.21" filterUnits="userSpaceOnUse">
     <feGaussianBlur xmlns="http://www.w3.org/2000/svg" stdDeviation="2.7"/>
    </filter>
   </defs>
   <g filter="url(#TfqIL7idKQk75CeG3iDtrF13UaD06pek)">
    <circle fill="#FFFFFF" cx="0" cy="0" r="1" transform="matrix(4.077,0,0,4.077,72.954,105.574)" vector-effect="non-scaling-stroke"/>
   </g>
   <defs>
    <filter id="E1xgIuIQZibtcujwRpn36vJ1aXoD0rf5" width="20.732" height="20.732" x="82.98" y="176.76" filterUnits="userSpaceOnUse">
     <feGaussianBlur xmlns="http://www.w3.org/2000/svg" stdDeviation="2.7"/>
    </filter>
   </defs>
   <g filter="url(#E1xgIuIQZibtcujwRpn36vJ1aXoD0rf5)">
    <circle fill="#FFFFFF" cx="0" cy="0" r="1" transform="matrix(4.077,0,0,4.077,93.341,187.123)" vector-effect="non-scaling-stroke"/>
   </g>
   <defs>
    <filter id="0uEdDHpAtEeAgzpPUyZZGRTSO6VMHFyO" width="20.732" height="20.732" x="144.14" y="135.98" filterUnits="userSpaceOnUse">
     <feGaussianBlur xmlns="http://www.w3.org/2000/svg" stdDeviation="2.7"/>
    </filter>
   </defs>
   <g filter="url(#0uEdDHpAtEeAgzpPUyZZGRTSO6VMHFyO)">
    <circle fill="#FFFFFF" cx="0" cy="0" r="1" transform="matrix(4.077,0,0,4.077,154.504,146.349)" vector-effect="non-scaling-stroke"/>
   </g>
   <defs>
    <filter id="A7tfdlyj4oB5kQ8OGHdRKbfuv2MsWBKp" width="20.732" height="20.732" x="164.53" y="74.82" filterUnits="userSpaceOnUse">
     <feGaussianBlur xmlns="http://www.w3.org/2000/svg" stdDeviation="2.7"/>
    </filter>
   </defs>
   <g filter="url(#A7tfdlyj4oB5kQ8OGHdRKbfuv2MsWBKp)">
    <circle fill="#FFFFFF" cx="0" cy="0" r="1" transform="matrix(4.077,0,0,4.077,174.891,85.187)" vector-effect="non-scaling-stroke"/>
   </g>
   <circle fill="#FFFFFF" cx="0" cy="0" r="1" transform="matrix(4.077,0,0,4.077,39.643,65.169)" vector-effect="non-scaling-stroke"/>
   <circle fill="#FFFFFF" cx="0" cy="0" r="1" transform="matrix(4.077,0,0,4.077,60.031,146.719)" vector-effect="non-scaling-stroke"/>
   <circle fill="#FFFFFF" cx="0" cy="0" r="1" transform="matrix(4.077,0,0,4.077,121.193,105.944)" vector-effect="non-scaling-stroke"/>
   <circle fill="#FFFFFF" cx="0" cy="0" r="1" transform="matrix(4.077,0,0,4.077,141.58,44.782)" vector-effect="non-scaling-stroke"/>
   <defs>
    <filter id="wAFo7MP6zZLrJGhTjASR6BVnKXrA10St" width="20.732" height="20.732" x="29.28" y="54.8" filterUnits="userSpaceOnUse">
     <feGaussianBlur xmlns="http://www.w3.org/2000/svg" stdDeviation="2.7"/>
    </filter>
   </defs>
   <g filter="url(#wAFo7MP6zZLrJGhTjASR6BVnKXrA10St)">
    <circle fill="#FFFFFF" cx="0" cy="0" r="1" transform="matrix(4.077,0,0,4.077,39.643,65.169)" vector-effect="non-scaling-stroke"/>
   </g>
   <defs>
    <filter id="DnekZiiOuMu3tR0ziUoFw6ZTvu7wp2yl" width="20.732" height="20.732" x="49.66" y="136.35" filterUnits="userSpaceOnUse">
     <feGaussianBlur xmlns="http://www.w3.org/2000/svg" stdDeviation="2.7"/>
    </filter>
   </defs>
   <g filter="url(#DnekZiiOuMu3tR0ziUoFw6ZTvu7wp2yl)">
    <circle fill="#FFFFFF" cx="0" cy="0" r="1" transform="matrix(4.077,0,0,4.077,60.031,146.719)" vector-effect="non-scaling-stroke"/>
   </g>
   <defs>
    <filter id="UO9NkUeDYhS7mjpG6Rdr4KliBwOenNSP" width="20.732" height="20.732" x="110.83" y="95.58" filterUnits="userSpaceOnUse">
     <feGaussianBlur xmlns="http://www.w3.org/2000/svg" stdDeviation="2.7"/>
    </filter>
   </defs>
   <g filter="url(#UO9NkUeDYhS7mjpG6Rdr4KliBwOenNSP)">
    <circle fill="#FFFFFF" cx="0" cy="0" r="1" transform="matrix(4.077,0,0,4.077,121.193,105.944)" vector-effect="non-scaling-stroke"/>
   </g>
   <defs>
    <filter id="rGc22x1haf7uUB93km2wLCBHLIYUU9kx" width="20.732" height="20.732" x="131.21" y="34.42" filterUnits="userSpaceOnUse">
     <feGaussianBlur xmlns="http://www.w3.org/2000/svg" stdDeviation="2.7"/>
    </filter>
   </defs>
   <g filter="url(#rGc22x1haf7uUB93km2wLCBHLIYUU9kx)">
    <circle fill="#FFFFFF" cx="0" cy="0" r="1" transform="matrix(4.077,0,0,4.077,141.58,44.782)" vector-effect="non-scaling-stroke"/>
   </g>
   <circle fill="#FFFFFF" cx="0" cy="0" r="1" transform="matrix(4.077,0,0,4.077,113.976,129.94)" vector-effect="non-scaling-stroke"/>
   <circle fill="#FFFFFF" cx="0" cy="0" r="1" transform="matrix(4.077,0,0,4.077,134.363,211.49)" vector-effect="non-scaling-stroke"/>
   <circle fill="#FFFFFF" cx="0" cy="0" r="1" transform="matrix(4.077,0,0,4.077,195.525,170.715)" vector-effect="non-scaling-stroke"/>
   <circle fill="#FFFFFF" cx="0" cy="0" r="1" transform="matrix(4.077,0,0,4.077,215.913,109.553)" vector-effect="non-scaling-stroke"/>
   <defs>
    <filter id="u6TS7OIZDrzlwmncIHSNo9y0N1IFzOGd" width="20.732" height="20.732" x="103.61" y="119.57" filterUnits="userSpaceOnUse">
     <feGaussianBlur xmlns="http://www.w3.org/2000/svg" stdDeviation="2.7"/>
    </filter>
   </defs>
   <g filter="url(#u6TS7OIZDrzlwmncIHSNo9y0N1IFzOGd)">
    <circle fill="#FFFFFF" cx="0" cy="0" r="1" transform="matrix(4.077,0,0,4.077,113.976,129.94)" vector-effect="non-scaling-stroke"/>
   </g>
   <defs>
    <filter id="eFfItJRe2Di82v3WsGAYkWJK53QT3qU4" width="20.732" height="20.732" x="124" y="201.12" filterUnits="userSpaceOnUse">
     <feGaussianBlur xmlns="http://www.w3.org/2000/svg" stdDeviation="2.7"/>
    </filter>
   </defs>
   <g filter="url(#eFfItJRe2Di82v3WsGAYkWJK53QT3qU4)">
    <circle fill="#FFFFFF" cx="0" cy="0" r="1" transform="matrix(4.077,0,0,4.077,134.363,211.49)" vector-effect="non-scaling-stroke"/>
   </g>
   <defs>
    <filter id="z5GWslEZzLhPs58Sh4hNPa0PmOdMiPEx" width="20.732" height="20.732" x="185.16" y="160.35" filterUnits="userSpaceOnUse">
     <feGaussianBlur xmlns="http://www.w3.org/2000/svg" stdDeviation="2.7"/>
    </filter>
   </defs>
   <g filter="url(#z5GWslEZzLhPs58Sh4hNPa0PmOdMiPEx)">
    <circle fill="#FFFFFF" cx="0" cy="0" r="1" transform="matrix(4.077,0,0,4.077,195.525,170.715)" vector-effect="non-scaling-stroke"/>
   </g>
   <defs>
    <filter id="CuGlib7aqDZFjhFDwedgqwqWh8F6tYVp" width="20.732" height="20.732" x="205.55" y="99.19" filterUnits="userSpaceOnUse">
     <feGaussianBlur xmlns="http://www.w3.org/2000/svg" stdDeviation="2.7"/>
    </filter>
   </defs>
   <g filter="url(#CuGlib7aqDZFjhFDwedgqwqWh8F6tYVp)">
    <circle fill="#FFFFFF" cx="0" cy="0" r="1" transform="matrix(4.077,0,0,4.077,215.913,109.553)" vector-effect="non-scaling-stroke"/>
   </g>
  </g>
  <g>
   <defs>
    <filter id="Kj335e2z5RWBHw1sYm8AIia2RlUi6iY9" width="112" height="112" x="68.18" y="57.83" filterUnits="userSpaceOnUse">
     <feGaussianBlur xmlns="http://www.w3.org/2000/svg" stdDeviation="4.294"/>
    </filter>
   </defs>
   <g opacity=".4" filter="url(#Kj335e2z5RWBHw1sYm8AIia2RlUi6iY9)">
    <circle fill="#FFFFFF" cx="0" cy="0" r="1" transform="matrix(46,0,0,46,124.176,113.831)" vector-effect="non-scaling-stroke"/>
   </g>
   <circle fill="#FB7C38" cx="0" cy="0" r="1" transform="matrix(46,0,0,46,124.176,113.831)" vector-effect="non-scaling-stroke"/>
   <defs>
    <filter id="rgwj1DNyT0Zt6eVxuRckZuvOI56PjtdR" width="60" height="60" x="78.18" y="68.33" filterUnits="userSpaceOnUse">
     <feGaussianBlur xmlns="http://www.w3.org/2000/svg" stdDeviation="6.44"/>
    </filter>
   </defs>
   <g filter="url(#rgwj1DNyT0Zt6eVxuRckZuvOI56PjtdR)">
    <circle fill="#FDA463" cx="0" cy="0" r="1" transform="matrix(15,0,0,15,108.176,98.331)" vector-effect="non-scaling-stroke"/>
   </g>
   <defs>
    <filter id="NA2DLkvzzucmrIhOxyorLGPT64i8E0cu" width="158.236" height="123.464" x="48.57" y="58.59" filterUnits="userSpaceOnUse">
     <feGaussianBlur xmlns="http://www.w3.org/2000/svg" stdDeviation="1.768"/>
    </filter>
   </defs>
   <g filter="url(#NA2DLkvzzucmrIhOxyorLGPT64i8E0cu)">
    <path fill="#E1E1E1" d="M 83.486 134.2 C 61.856 154.174 49.413 170.833 53.446 176.192 C 59.271 183.933 97.257 165.188 138.242 134.346 C 179.226 103.504 207.762 72.189 201.937 64.448 C 198.025 59.25 179.58 66.033 155.493 80.366 C 156.953 81.281 158.336 82.319 159.679 83.426 C 173.221 76.37 183.057 73.542 185.514 76.807 C 190.05 82.835 167.82 107.222 135.904 131.24 C 103.987 155.258 74.405 169.861 69.869 163.833 C 67.275 160.385 73.457 150.926 85.174 138.972 C 84.518 137.401 83.937 135.812 83.486 134.2 L 83.486 134.2 Z"/>
   </g>
  </g>
 </g>
 <g opacity=".4">
  <linearGradient id="_lgradient_167" x1=".517" x2=".517" y1="0" y2="1">
   <stop offset="0%" style="stop-color:rgb(255,255,255)"/>
   <stop offset="12.5%" stop-opacity=".098" style="stop-color:rgb(255,255,255)"/>
   <stop offset="92.5%" stop-opacity=".098" style="stop-color:rgb(0,0,0)"/>
   <stop offset="100%" stop-opacity=".498" style="stop-color:rgb(0,0,0)"/>
  </linearGradient>
  <path fill="none" stroke="url(#_lgradient_167)" stroke-linecap="round" stroke-linejoin="round" stroke-width="4.077" d="M 165.685 11.947 C 239.74 11.947 250.324 22.504 250.324 96.491 L 250.324 155.742 C 250.324 229.728 239.74 240.285 165.685 240.285 L 90.315 240.285 C 16.26 240.285 5.676 229.728 5.676 155.742 L 5.676 96.491 C 5.676 22.504 16.26 11.947 90.315 11.947 L 165.685 11.947 Z" vector-effect="non-scaling-stroke"/>
 </g>
</svg>
